wp-content/themes/bsm-child/assets/images/line1.svg

<?xml version="1.0" encoding="UTF-8"?>
<svg id="Layer_2" data-name="Layer 2" xmlns="http://www.w3.org/2000/svg" viewBox="0 0 83.38 18.86">
  <defs>
    <style>
      .cls-1 {
        fill: #fff;
        stroke-width: 0px;
      }
    </style>
  </defs>
  <g id="sonrisas">
    <g>
      <path class="cls-1" d="M0,0h6.46c2.68,0,4.48,1.26,4.48,3.71,0,1.66-.98,2.88-2.84,3.24v.13c2.17.35,3.28,1.8,3.28,3.7,0,2.57-1.86,4.08-4.75,4.08H0V0ZM6.23,6.43c2.17,0,3.11-.71,3.11-2.48s-.8-2.51-2.97-2.51H1.58v4.99h4.66ZM6.59,13.42c2.22,0,3.19-.78,3.19-2.82s-1-2.82-3.19-2.82H1.58v5.63h5.01Z"/>
      <path class="cls-1" d="M21.23,7.19v.62h-1.6v-.38c0-1.71-.53-2.37-2.11-2.37-1.71,0-2.42.78-2.42,2.55v7.25h-1.6V3.77h1.44v1.84h.11c.35-1.02,1.42-1.93,3.04-1.93,2.26,0,3.13,1.6,3.13,3.51Z"/>
      <path class="cls-1" d="M31.26,8.01v6.86h-1.44v-2.02l-.11-.02c-.64,1.26-2.04,2.26-4.13,2.26s-3.5-1.02-3.5-2.86,1.42-2.75,3.82-3.08l3.86-.53v-.8c0-1.93-.82-2.71-2.88-2.71s-2.93.78-2.93,2.53v.33h-1.53v-.18c0-2.29,1.75-4.1,4.59-4.1s4.26,1.89,4.26,4.33ZM29.75,10.18v-.38l-3.73.53c-1.75.24-2.4.6-2.4,1.77s.71,1.64,2.4,1.64c1.89,0,3.73-.98,3.73-3.57Z"/>
      <path class="cls-1" d="M43.24,8.14v6.72h-1.57v-6.37c0-2.37-.78-3.42-3.02-3.42s-3.35,1.02-3.35,3.46v6.32h-1.6V3.9h1.44v2.26h.07c.42-1.15,1.66-2.48,3.93-2.48,2.82,0,4.1,1.82,4.1,4.46Z"/>
      <path class="cls-1" d="M55.34,0v14.86h-1.42v-2.11h-.09c-.49,1.38-1.77,2.33-3.84,2.33-3.08,0-4.81-2.24-4.81-5.7s1.64-5.7,4.64-5.7c2.11,0,3.46,1.11,3.93,2.31V0h1.6ZM53.74,10.34v-1.89c0-2.26-1.31-3.39-3.48-3.39s-3.48.98-3.48,4.33,1.31,4.33,3.48,4.33,3.48-1.13,3.48-3.37Z"/>
      <path class="cls-1" d="M57.76,0h1.58v2.44h-1.58V0ZM57.76,3.77h1.58v11.09h-1.58V3.77Z"/>
      <path class="cls-1" d="M71.29,8.14v6.72h-1.57v-6.37c0-2.37-.78-3.42-3.02-3.42s-3.35,1.02-3.35,3.46v6.32h-1.6V3.9h1.44v2.26h.07c.42-1.15,1.66-2.48,3.93-2.48,2.82,0,4.1,1.82,4.1,4.46Z"/>
      <path class="cls-1" d="M83.38,3.9v10.49c0,2.97-1.91,4.46-4.79,4.46s-4.77-1.46-4.77-3.99h1.57c0,1.8.91,2.57,3.22,2.57s3.17-.84,3.17-3.04v-2.79h-.02c-.51,1.26-1.89,2.28-3.79,2.28-3.02,0-4.75-2-4.75-5.1s1.71-5.1,4.77-5.1c1.93,0,3.39.95,3.88,2.35h.09v-2.13h1.42ZM81.79,9.12v-.67c0-2.26-1.49-3.39-3.53-3.39s-3.44.84-3.44,3.73,1.4,3.73,3.53,3.73c1.97,0,3.44-1.13,3.44-3.39Z"/>
    </g>
  </g>
</svg>

<?xml version="1.0" encoding="UTF-8"?>
<svg width="84px" height="19px" viewBox="0 0 84 19" version="1.1" xmlns="http://www.w3.org/2000/svg" xmlns:xlink="http://www.w3.org/1999/xlink">
    <title>Group</title>
    <g id="Page-1" stroke="none" stroke-width="1" fill="none" fill-rule="evenodd">
        <g id="Group">
            <rect id="Rectangle" fill-opacity="0" fill="#D8D8D8" x="0" y="5.68434189e-14" width="83" height="19"></rect>
            <g id="line1" fill="#000000" fill-rule="nonzero">
                <path d="M0,0 L6.46,0 C9.14,0 10.94,1.26 10.94,3.71 C10.94,5.37 9.96,6.59 8.1,6.95 L8.1,7.08 C10.27,7.43 11.38,8.88 11.38,10.78 C11.38,13.35 9.52,14.86 6.63,14.86 L0,14.86 L0,0 Z M6.23,6.43 C8.4,6.43 9.34,5.72 9.34,3.95 C9.34,2.18 8.54,1.44 6.37,1.44 L1.58,1.44 L1.58,6.43 L6.24,6.43 L6.23,6.43 Z M6.59,13.42 C8.81,13.42 9.78,12.64 9.78,10.6 C9.78,8.56 8.78,7.78 6.59,7.78 L1.58,7.78 L1.58,13.41 L6.59,13.41 L6.59,13.42 Z" id="Shape"></path>
                <path d="M21.23,7.19 L21.23,7.81 L19.63,7.81 L19.63,7.43 C19.63,5.72 19.1,5.06 17.52,5.06 C15.81,5.06 15.1,5.84 15.1,7.61 L15.1,14.86 L13.5,14.86 L13.5,3.77 L14.94,3.77 L14.94,5.61 L15.05,5.61 C15.4,4.59 16.47,3.68 18.09,3.68 C20.35,3.68 21.22,5.28 21.22,7.19 L21.23,7.19 Z" id="Path"></path>
                <path d="M31.26,8.01 L31.26,14.87 L29.82,14.87 L29.82,12.85 L29.71,12.83 C29.07,14.09 27.67,15.09 25.58,15.09 C23.49,15.09 22.08,14.07 22.08,12.23 C22.08,10.39 23.5,9.48 25.9,9.15 L29.76,8.62 L29.76,7.82 C29.76,5.89 28.94,5.11 26.88,5.11 C24.82,5.11 23.95,5.89 23.95,7.64 L23.95,7.97 L22.42,7.97 L22.42,7.79 C22.42,5.5 24.17,3.69 27.01,3.69 C29.85,3.69 31.27,5.58 31.27,8.02 L31.26,8.01 Z M29.75,10.18 L29.75,9.8 L26.02,10.33 C24.27,10.57 23.62,10.93 23.62,12.1 C23.62,13.27 24.33,13.74 26.02,13.74 C27.91,13.74 29.75,12.76 29.75,10.17 L29.75,10.18 Z" id="Shape"></path>
                <path d="M43.24,8.14 L43.24,14.86 L41.67,14.86 L41.67,8.49 C41.67,6.12 40.89,5.07 38.65,5.07 C36.41,5.07 35.3,6.09 35.3,8.53 L35.3,14.85 L33.7,14.85 L33.7,3.9 L35.14,3.9 L35.14,6.16 L35.21,6.16 C35.63,5.01 36.87,3.68 39.14,3.68 C41.96,3.68 43.24,5.5 43.24,8.14 L43.24,8.14 Z" id="Path"></path>
                <path d="M55.34,0 L55.34,14.86 L53.92,14.86 L53.92,12.75 L53.83,12.75 C53.34,14.13 52.06,15.08 49.99,15.08 C46.91,15.08 45.18,12.84 45.18,9.38 C45.18,5.92 46.82,3.68 49.82,3.68 C51.93,3.68 53.28,4.79 53.75,5.99 L53.75,0 L55.35,0 L55.34,0 Z M53.74,10.34 L53.74,8.45 C53.74,6.19 52.43,5.06 50.26,5.06 C48.09,5.06 46.78,6.04 46.78,9.39 C46.78,12.74 48.09,13.72 50.26,13.72 C52.43,13.72 53.74,12.59 53.74,10.35 L53.74,10.34 Z" id="Shape"></path>
                <path d="M57.76,0 L59.34,0 L59.34,2.44 L57.76,2.44 L57.76,0 Z M57.76,3.77 L59.34,3.77 L59.34,14.86 L57.76,14.86 L57.76,3.77 Z" id="Shape"></path>
                <path d="M71.29,8.14 L71.29,14.86 L69.72,14.86 L69.72,8.49 C69.72,6.12 68.94,5.07 66.7,5.07 C64.46,5.07 63.35,6.09 63.35,8.53 L63.35,14.85 L61.75,14.85 L61.75,3.9 L63.19,3.9 L63.19,6.16 L63.26,6.16 C63.68,5.01 64.92,3.68 67.19,3.68 C70.01,3.68 71.29,5.5 71.29,8.14 Z" id="Path"></path>
                <path d="M83.38,3.9 L83.38,14.39 C83.38,17.36 81.47,18.85 78.59,18.85 C75.71,18.85 73.82,17.39 73.82,14.86 L75.39,14.86 C75.39,16.66 76.3,17.43 78.61,17.43 C80.92,17.43 81.78,16.59 81.78,14.39 L81.78,11.6 L81.76,11.6 C81.25,12.86 79.87,13.88 77.97,13.88 C74.95,13.88 73.22,11.88 73.22,8.78 C73.22,5.68 74.93,3.68 77.99,3.68 C79.92,3.68 81.38,4.63 81.87,6.03 L81.96,6.03 L81.96,3.9 L83.38,3.9 L83.38,3.9 Z M81.79,9.12 L81.79,8.45 C81.79,6.19 80.3,5.06 78.26,5.06 C76.22,5.06 74.82,5.9 74.82,8.79 C74.82,11.68 76.22,12.52 78.35,12.52 C80.32,12.52 81.79,11.39 81.79,9.13 L81.79,9.12 Z" id="Shape"></path>
            </g>
        </g>
    </g>
</svg>
